;FLAVOR:Marlin
;TIME:17075
;Filament used: 10.7088m
;Layer height: 0.2
;MINX:80.95
;MINY:90.399
;MINZ:0.2
;MAXX:139.05
;MAXY:161.899
;MAXZ:100
;Generated with Cura_SteamEngine 4.4.1
M140 S60
M105
M190 S60
M104 S200
M105
M109 S200
M82 ;absolute extrusion mode
M201 X500.00 Y500.00 Z100.00 E5000.00 ;Setup machine max acceleration
M203 X500.00 Y500.00 Z10.00 E50.00 ;Setup machine max feedrate
M204 P500.00 R1000.00 T500.00 ;Setup Print/Retract/Travel acceleration
M205 X8.00 Y8.00 Z0.40 E5.00 ;Setup Jerk
M220 S100 ;Reset Feedrate
M221 S100 ;Reset Flowrate

G28 ;Home

G92 E0 ;Reset Extruder
G1 Z2.0 F3000 ;Move Z Axis up
G1 X10.1 Y20 Z0.28 F5000.0 ;Move to start position
G1 X10.1 Y200.0 Z0.28 F1500.0 E15 ;Draw the first line
G1 X10.4 Y200.0 Z0.28 F5000.0 ;Move to side a little
G1 X10.4 Y20 Z0.28 F1500.0 E30 ;Draw the second line
G92 E0 ;Reset Extruder
G1 Z2.0 F3000 ;Move Z Axis up

G92 E0
G92 E0
G1 F1500 E-6.5
;LAYER_COUNT:500
;LAYER:0
M107
G0 F6000 X84.825 Y93.035 Z0.2
;TYPE:SKIRT
G1 F1500 E0
G1 F1200 X85.565 Y92.458 E0.03121
G1 X86.35 Y91.946 E0.06238
G1 X87.177 Y91.502 E0.0936
G1 X88.038 Y91.131 E0.12478
G1 X88.928 Y90.835 E0.15598
G1 X89.84 Y90.615 E0.18718
G1 X90.767 Y90.474 E0.21837
G1 X91.622 Y90.414 E0.24688
G1 X91.949 Y90.404 E0.25776
G1 X92.285 Y90.399 E0.26893
G1 X93.24 Y90.399 E0.3007
G1 X93.398 Y90.4 E0.30595
G1 X94.096 Y90.41 E0.32917
G1 X94.882 Y90.45 E0.35535
G1 X97.912 Y90.711 E0.4565
G1 X100.394 Y90.852 E0.53918
G1 X102.944 Y90.923 E0.62403
G1 X105.469 Y90.923 E0.70801
G1 X107.964 Y90.851 E0.79103
G1 X110.46 Y90.71 E0.87418
G1 X113.508 Y90.449 E0.97593
G1 X114.137 Y90.413 E0.99688
G1 X114.456 Y90.404 E1.0075
G1 X114.733 Y90.4 E1.01671
G1 X115.068 Y90.399 E1.02785
G1 X115.263 Y90.4 E1.03434
G1 X115.944 Y90.41 E1.05699
G1 X116.88 Y90.464 E1.08818
G1 X117.808 Y90.597 E1.11936
G1 X118.722 Y90.809 E1.15056
G1 X119.614 Y91.098 E1.18175
G1 X120.478 Y91.462 E1.21293
G1 X121.309 Y91.898 E1.24414
G1 X122.099 Y92.404 E1.27535
G1 X122.843 Y92.974 E1.30652
G1 X123.536 Y93.606 E1.33772
G1 X124.172 Y94.295 E1.3689
G1 X124.748 Y95.036 E1.40012
G1 X125.258 Y95.823 E1.43131
G1 X125.699 Y96.65 E1.46248
G1 X126.03 Y97.413 E1.49014
G1 X126.262 Y98.008 E1.51139
G1 X126.428 Y98.463 E1.52749
G1 X138.233 Y133.179 E2.74708
G1 X138.283 Y133.329 E2.75234
G1 X138.503 Y134.008 E2.77608
G1 X138.754 Y134.912 E2.80729
G1 X138.927 Y135.834 E2.83849
G1 X139.033 Y137.023 E2.87819
G1 X139.043 Y137.315 E2.88791
G1 X139.049 Y137.687 E2.90028
G1 X139.05 Y140.688 E3.0001
G1 X139.049 Y140.85 E3.00549
G1 X139.034 Y141.891 E3.04011
G1 X139.031 Y142.039 E3.04504
G1 X138.974 Y144.089 E3.11325
G1 X138.993 Y147.64 E3.23136
G1 X139.04 Y149.508 E3.2935
G1 X139.043 Y149.728 E3.30082
G1 X139.045 Y150.129 E3.31416
G1 X139.045 Y150.262 E3.31858
G1 X139.04 Y150.967 E3.34203
G1 X138.993 Y151.904 E3.37324
G1 X138.867 Y152.833 E3.40442
G1 X138.662 Y153.748 E3.43561
G1 X138.38 Y154.643 E3.46682
G1 X138.022 Y155.51 E3.49801
G1 X137.592 Y156.343 E3.52919
G1 X137.093 Y157.137 E3.56038
G1 X136.528 Y157.886 E3.59159
G1 X135.901 Y158.583 E3.62277
G1 X135.217 Y159.225 E3.65397
G1 X134.481 Y159.806 E3.68516
G1 X133.698 Y160.322 E3.71635
G1 X132.874 Y160.77 E3.74754
G1 X132.015 Y161.146 E3.77873
G1 X131.126 Y161.447 E3.80995
G1 X130.216 Y161.672 E3.84113
G1 X129.289 Y161.818 E3.87234
G1 X128.266 Y161.887 E3.90644
G1 X127.779 Y161.897 E3.92264
G1 X127.553 Y161.899 E3.93016
G1 X113.913 Y161.899 E4.38383
G1 X113.756 Y161.898 E4.38905
G1 X113.055 Y161.888 E4.41237
G1 X112.119 Y161.835 E4.44355
G1 X111.19 Y161.702 E4.47476
G1 X110.277 Y161.49 E4.50594
G1 X109.384 Y161.202 E4.53714
G1 X108.52 Y160.838 E4.56833
G1 X107.689 Y160.402 E4.59954
G1 X106.899 Y159.897 E4.63073
G1 X106.155 Y159.327 E4.6619
G1 X105.297 Y158.528 E4.70089
G1 X104.909 Y158.126 E4.71948
G1 X104.775 Y157.984 E4.72597
G1 X103.764 Y156.898 E4.77532
G1 X101.989 Y155.099 E4.85938
G1 X100.183 Y153.368 E4.94258
G1 X98.291 Y151.655 E5.02747
G1 X96.377 Y150.017 E5.11126
G1 X94.442 Y148.456 E5.19395
G1 X92.421 Y146.918 E5.27842
G1 X90.387 Y145.456 E5.36173
G1 X88.308 Y144.051 E5.44519
G1 X86.112 Y142.656 E5.53172
G1 X85.578 Y142.294 E5.55318
G1 X85.535 Y142.263 E5.55494
G1 X84.798 Y141.683 E5.58613
G1 X84.114 Y141.041 E5.61733
G1 X83.486 Y140.344 E5.64854
G1 X82.921 Y139.597 E5.67969
G1 X82.42 Y138.803 E5.71092
G1 X81.99 Y137.97 E5.74209
G1 X81.632 Y137.103 E5.77329
G1 X81.349 Y136.209 E5.80448
G1 X81.143 Y135.294 E5.83568
G1 X81.016 Y134.365 E5.86686
G1 X80.972 Y133.645 E5.89085
G1 X80.963 Y133.321 E5.90163
G1 X80.959 Y133.019 E5.91168
G1 X80.95 Y102.056 E6.94151
G1 X80.951 Y101.916 E6.94617
G1 X80.959 Y101.272 E6.96759
G1 X81.01 Y100.336 E6.99877
G1 X81.142 Y99.407 E7.02998
G1 X81.351 Y98.493 E7.06116
G1 X81.638 Y97.6 E7.09236
G1 X82 Y96.735 E7.12355
G1 X82.435 Y95.904 E7.15475
G1 X82.938 Y95.113 E7.18592
G1 X83.507 Y94.367 E7.21713
G1 X84.138 Y93.673 E7.24833
G1 X84.825 Y93.035 E7.27951
G0 F6000 X85.214 Y93.231
G1 F1200 X85.949 Y92.677 E7.31012
G1 X86.73 Y92.188 E7.34077
G1 X87.55 Y91.769 E7.3714
G1 X88.403 Y91.423 E7.40201
G1 X89.283 Y91.152 E7.43264
G1 X90.183 Y90.959 E7.46325
G1 X91.096 Y90.844 E7.49386
G1 X91.634 Y90.814 E7.51178
G1 X91.961 Y90.804 E7.52266
G1 X92.285 Y90.799 E7.53344
G1 X93.24 Y90.799 E7.5652
G1 X93.392 Y90.8 E7.57026
G1 X94.09 Y90.81 E7.59348
G1 X94.848 Y90.848 E7.61872
G1 X97.889 Y91.11 E7.72024
G1 X100.396 Y91.252 E7.80376
G1 X102.933 Y91.323 E7.88817
G1 X105.445 Y91.323 E7.97172
G1 X107.997 Y91.25 E8.05663
G1 X110.518 Y91.107 E8.14062
G1 X113.542 Y90.848 E8.24156
G1 X114.148 Y90.813 E8.26175
G1 X114.467 Y90.804 E8.27237
G1 X114.734 Y90.8 E8.28125
G1 X115.069 Y90.799 E8.29239
G1 X115.257 Y90.8 E8.29864
G1 X115.938 Y90.81 E8.3213
G1 X116.857 Y90.864 E8.35192
G1 X117.768 Y90.997 E8.38254
G1 X118.664 Y91.208 E8.41315
G1 X119.538 Y91.497 E8.44377
G1 X120.384 Y91.86 E8.47439
G1 X121.195 Y92.295 E8.505
G1 X121.966 Y92.799 E8.53563
G1 X122.689 Y93.369 E8.56626
G1 X123.361 Y93.998 E8.59687
G1 X123.975 Y94.684 E8.62749
G1 X124.528 Y95.42 E8.65811
G1 X125.015 Y96.202 E8.68875
G1 X125.432 Y97.022 E8.71935
G1 X125.658 Y97.558 E8.7387
G1 X125.89 Y98.153 E8.75994
G1 X126.05 Y98.591 E8.77545
G1 X137.855 Y133.307 E9.99504
G1 X137.903 Y133.453 E10.00015
G1 X138.123 Y134.132 E10.02389
G1 X138.368 Y135.019 E10.05449
G1 X138.536 Y135.924 E10.08511
G1 X138.633 Y137.036 E10.12223
G1 X138.643 Y137.328 E10.13195
G1 X138.649 Y137.687 E10.14389
G1 X138.65 Y140.688 E10.24371
G1 X138.649 Y140.845 E10.24893
G1 X138.634 Y141.886 E10.28356
G1 X138.631 Y142.028 E10.28828
G1 X138.574 Y144.08 E10.35656
G1 X138.593 Y147.652 E10.47536
G1 X138.64 Y149.518 E10.53745
G1 X138.643 Y149.73 E10.5445
G1 X138.645 Y150.131 E10.55784
G1 X138.645 Y150.259 E10.56209
G1 X138.64 Y150.964 E10.58554
G1 X138.593 Y151.884 E10.61618
G1 X138.467 Y152.796 E10.6468
G1 X138.262 Y153.693 E10.67741
G1 X137.98 Y154.57 E10.70805
G1 X137.624 Y155.418 E10.73864
G1 X137.194 Y156.233 E10.76928
G1 X136.696 Y157.007 E10.7999
G1 X136.133 Y157.735 E10.83051
G1 X135.508 Y158.411 E10.86113
G1 X134.827 Y159.031 E10.89176
G1 X134.095 Y159.589 E10.92237
G1 X133.317 Y160.082 E10.95301
G1 X132.5 Y160.505 E10.98361
G1 X131.648 Y160.856 E11.01425
G1 X130.77 Y161.131 E11.04485
G1 X129.871 Y161.33 E11.07548
G1 X128.958 Y161.449 E11.1061
G1 X128.258 Y161.487 E11.12942
G1 X127.771 Y161.497 E11.14562
G1 X127.553 Y161.499 E11.15287
G1 X113.913 Y161.499 E11.60654
G1 X113.762 Y161.498 E11.61156
G1 X113.061 Y161.488 E11.63488
G1 X112.142 Y161.435 E11.6655
G1 X111.231 Y161.302 E11.69612
G1 X110.335 Y161.091 E11.72673
G1 X109.46 Y160.803 E11.75737
G1 X108.614 Y160.44 E11.78799
G1 X107.803 Y160.005 E11.8186
G1 X107.032 Y159.501 E11.84924
G1 X106.308 Y158.932 E11.87986
G1 X105.585 Y158.25 E11.91292
G1 X105.197 Y157.848 E11.9315
G1 X105.068 Y157.712 E11.93774
G1 X104.059 Y156.629 E11.98697
G1 X102.25 Y154.794 E12.07267
G1 X100.446 Y153.065 E12.15578
G1 X98.574 Y151.371 E12.23975
G1 X96.642 Y149.718 E12.32432
G1 X94.668 Y148.125 E12.40869
G1 X92.674 Y146.607 E12.49204
G1 X90.598 Y145.115 E12.57707
G1 X88.525 Y143.715 E12.66027
G1 X86.327 Y142.318 E12.74689
G1 X85.812 Y141.969 E12.76759
G1 X85.769 Y141.938 E12.76935
G1 X85.046 Y141.368 E12.79997
G1 X84.376 Y140.737 E12.83058
G1 X83.763 Y140.051 E12.86118
G1 X83.211 Y139.313 E12.89183
G1 X82.726 Y138.531 E12.92244
G1 X82.31 Y137.709 E12.95308
G1 X81.968 Y136.855 E12.98368
G1 X81.7 Y135.974 E13.01431
G1 X81.511 Y135.073 E13.04492
G1 X81.4 Y134.159 E13.07555
G1 X81.372 Y133.634 E13.09303
G1 X81.363 Y133.31 E13.10381
G1 X81.359 Y133.019 E13.11349
G1 X81.35 Y102.056 E14.14333
G1 X81.351 Y101.921 E14.14782
G1 X81.359 Y101.277 E14.16924
G1 X81.41 Y100.358 E14.19985
G1 X81.541 Y99.447 E14.23046
G1 X81.751 Y98.55 E14.26111
G1 X82.037 Y97.675 E14.29172
G1 X82.399 Y96.829 E14.32233
G1 X82.832 Y96.016 E14.35297
G1 X83.335 Y95.245 E14.38358
G1 X83.902 Y94.52 E14.4142
G1 X84.53 Y93.847 E14.44481
G1 X85.214 Y93.231 E14.47543
G0 F6000 X85.602 Y93.431
G1 F1200 X86.333 Y92.9 E14.50548
G1 X87.108 Y92.436 E14.53552
G1 X87.92 Y92.042 E14.56554
G1 X88.765 Y91.722 E14.59559
G1 X89.634 Y91.477 E14.62562
G1 X90.522 Y91.311 E14.65567
G1 X91.646 Y91.214 E14.69319
G1 X91.973 Y91.204 E14.70407
G1 X92.285 Y91.199 E14.71445
G1 X93.24 Y91.199 E14.74622
G1 X93.386 Y91.2 E14.75107
G1 X94.084 Y91.21 E14.77429
G1 X94.814 Y91.247 E14.7986
G1 X97.834 Y91.507 E14.89942
G1 X100.396 Y91.652 E14.98477
G1 X102.922 Y91.723 E15.06882
G1 X105.457 Y91.723 E15.15313
G1 X107.996 Y91.65 E15.23761
G1 X110.539 Y91.506 E15.32233
G1 X113.576 Y91.246 E15.42371
G1 X114.159 Y91.213 E15.44313
G1 X114.478 Y91.204 E15.45374
G1 X114.736 Y91.2 E15.46233
G1 X115.071 Y91.199 E15.47347
G1 X115.251 Y91.2 E15.47946
G1 X115.932 Y91.21 E15.50211
G1 X116.833 Y91.263 E15.53213
G1 X117.727 Y91.396 E15.56219
G1 X118.605 Y91.607 E15.59222
G1 X119.461 Y91.895 E15.62226
G1 X120.288 Y92.258 E15.6523
G1 X121.079 Y92.693 E15.68233
G1 X121.83 Y93.195 E15.71237
G1 X122.532 Y93.762 E15.74238
G1 X123.182 Y94.389 E15.77242
G1 X123.774 Y95.072 E15.80248
G1 X124.304 Y95.803 E15.83252
G1 X124.766 Y96.579 E15.86255
G1 X125.285 Y97.704 E15.90376
G1 X125.517 Y98.299 E15.925
G1 X125.671 Y98.72 E15.93991
G1 X137.476 Y133.436 E17.1595
G1 X137.522 Y133.576 E17.1644
G1 X137.742 Y134.255 E17.18814
G1 X137.982 Y135.126 E17.21819
G1 X138.145 Y136.014 E17.24822
G1 X138.233 Y137.05 E17.2828
G1 X138.243 Y137.342 E17.29252
G1 X138.249 Y137.688 E17.30403
G1 X138.25 Y140.689 E17.40384
G1 X138.249 Y140.839 E17.40883
G1 X138.234 Y141.88 E17.44346
G1 X138.231 Y142.016 E17.44798
G1 X138.174 Y144.07 E17.51633
G1 X138.193 Y147.664 E17.63587
G1 X138.24 Y149.528 E17.69788
G1 X138.243 Y149.732 E17.70467
G1 X138.245 Y150.133 E17.718
G1 X138.245 Y150.256 E17.7221
G1 X138.24 Y150.961 E17.74554
G1 X138.193 Y151.863 E17.77559
G1 X138.067 Y152.758 E17.80565
G1 X137.863 Y153.637 E17.83566
G1 X137.581 Y154.495 E17.8657
G1 X137.225 Y155.325 E17.89574
G1 X136.796 Y156.12 E17.92578
G1 X136.299 Y156.874 E17.95582
G1 X135.738 Y157.581 E17.98584
G1 X135.116 Y158.236 E18.01588
G1 X134.438 Y158.833 E18.04593
G1 X133.71 Y159.368 E18.07598
G1 X132.938 Y159.836 E18.106
G1 X132.127 Y160.234 E18.13605
G1 X131.285 Y160.559 E18.16607
G1 X130.417 Y160.808 E18.1961
G1 X129.53 Y160.98 E18.22615
G1 X128.249 Y161.087 E18.26891
G1 X127.762 Y161.097 E18.28511
G1 X127.553 Y161.099 E18.29206
G1 X113.913 Y161.099 E18.74573
G1 X113.768 Y161.098 E18.75055
G1 X113.067 Y161.088 E18.77387
G1 X112.165 Y161.035 E18.80392
G1 X111.272 Y160.903 E18.83395
G1 X110.393 Y160.692 E18.86401
G1 X109.537 Y160.404 E18.89405
G1 X108.71 Y160.042 E18.92408
G1 X107.918 Y159.608 E18.95412
G1 X107.168 Y159.105 E18.98415
G1 X106.465 Y158.538 E19.01419
G1 X105.873 Y157.973 E19.04141
G1 X105.485 Y157.571 E19.05999
G1 X105.36 Y157.439 E19.06604
G1 X104.336 Y156.339 E19.11602
G1 X102.546 Y154.525 E19.20079
G1 X100.703 Y152.758 E19.28571
G1 X98.821 Y151.055 E19.37012
G1 X96.905 Y149.415 E19.45401
G1 X94.921 Y147.815 E19.53878
G1 X92.905 Y146.28 E19.62306
G1 X90.85 Y144.803 E19.70723
G1 X88.733 Y143.373 E19.7922
G1 X86.541 Y141.98 E19.87858
G1 X86.046 Y141.645 E19.89846
G1 X86.003 Y141.614 E19.90022
G1 X85.295 Y141.054 E19.93025
G1 X84.638 Y140.433 E19.96032
G1 X84.04 Y139.757 E19.99034
G1 X83.503 Y139.031 E20.02037
G1 X83.033 Y138.26 E20.0504
G1 X82.633 Y137.45 E20.08045
G1 X82.306 Y136.608 E20.11049
G1 X82.055 Y135.741 E20.14051
G1 X81.881 Y134.855 E20.17054
G1 X81.772 Y133.623 E20.21168
G1 X81.763 Y133.299 E20.22246
G1 X81.759 Y133.019 E20.23178
G1 X81.75 Y102.056 E21.26161
G1 X81.751 Y101.926 E21.26593
G1 X81.759 Y101.282 E21.28735
G1 X81.81 Y100.381 E21.31737
G1 X81.941 Y99.487 E21.34742
G1 X82.15 Y98.609 E21.37744
G1 X82.436 Y97.752 E21.40749
G1 X82.797 Y96.924 E21.43753
G1 X83.23 Y96.131 E21.46758
G1 X83.731 Y95.38 E21.49761
G1 X84.296 Y94.676 E21.52763
G1 X84.922 Y94.025 E21.55767
G1 X85.602 Y93.431 E21.5877
G1 F1500 E15.0877
;MESH:trofast_adapter_for_hauck_high_chair.stl
G0 F6000 X92.37 Y100.734
G0 X92.37 Y101.819
G0 X92.741 Y132.567
G0 X100.841 Y132.574
G0 X113.512 Y150.299
;TYPE:WALL-INNER
G1 F1500 E21.5877
G1 F1200 X100.752 Y132.749 E22.30939
G1 X92.559 Y132.749 E22.58189
G1 X92.55 Y102.198 E23.59802
G1 X92.55 Y101.999 E23.60464
G1 X92.749 Y101.999 E23.60893
G1 X93.347 Y101.999 E23.62882
G1 X93.35 Y131.999 E24.62662
G1 X115.029 Y131.999 E25.34767
G1 X115.05 Y102.213 E26.33835
G1 X115.05 Y101.999 E26.34547
G1 X115.378 Y101.999 E26.35638
G1 X115.446 Y102.201 E26.36284
G1 X127.45 Y137.498 E27.60286
G1 X127.45 Y140.799 E27.71265
G1 X114.964 Y140.799 E28.12794
G1 X114.949 Y149.3 E28.41068
G1 X114.949 Y149.499 E28.4173
G1 X115.148 Y149.499 E28.42158
G1 X127.441 Y149.499 E28.83045
G1 X127.445 Y150.099 E28.85041
G1 X127.446 Y150.299 E28.85706
G1 X127.246 Y150.299 E28.86136
G1 X113.512 Y150.299 E29.31815
G0 F6000 X113.308 Y150.699
;TYPE:WALL-OUTER
G1 F1200 X100.548 Y133.149 E30.03985
G1 X92.159 Y133.149 E30.31886
G1 X92.15 Y101.599 E31.36822
G1 X93.747 Y101.599 E31.42134
G1 X93.75 Y131.599 E32.41914
G1 X114.629 Y131.599 E33.11358
G1 X114.65 Y101.599 E34.11139
G1 X115.665 Y101.599 E34.14514
G1 X127.85 Y137.431 E35.40395
G1 X127.85 Y141.199 E35.52927
G1 X115.363 Y141.199 E35.94459
G1 X115.35 Y149.099 E36.20734
G1 X127.838 Y149.099 E36.6227
G1 X127.849 Y150.699 E36.67591
G1 X113.308 Y150.699 E37.15955
G0 F6000 X113.546 Y150.28
G0 X113.711 Y149.909
;TYPE:SKIN
G1 F1200 X100.973 Y132.389 E37.88
G1 X115.419 Y132.389 E38.36048
G1 X115.439 Y103.389 E39.32502
G1 X127.06 Y137.562 E40.52555
G1 X127.06 Y140.409 E40.62024
G1 X114.574 Y140.409 E41.03552
G1 X114.559 Y149.889 E41.35083
G1 X127.053 Y149.889 E41.76638
G1 X127.054 Y149.909 E41.76705
G1 X113.711 Y149.909 E42.21084
G0 F6000 X113.711 Y150.189
G0 X112.375 Y149.058
G0 X100.668 Y132.914
G0 X92.96 Y132.639
G0 X92.96 Y132.359
G1 F1200 X92.949 Y132.359 E42.2112
G1 X92.94 Y102.389 E43.20801
G1 X92.957 Y102.389 E43.20857
G1 X92.96 Y132.359 E44.20538
G1 F1500 E37.70538
G0 F6000 X92.96 Y132.639
G0 X100.668 Y132.914
G0 X113.601 Y150.124
G0 X114.11 Y150.189
G0 X114.11 Y149.748
G1 F1500 E44.20538
G1 F1200 X112.948 Y148.587 E44.26001
G1 F1500 E37.76001
G0 F6000 X112.592 Y148.845
G0 X113.601 Y150.124
G0 X127.263 Y150.117
G0 X127.26 Y149.681
G0 X114.767 Y149.681
G0 X114.841 Y148.344
G0 X114.402 Y148.343
G1 F1500 E44.26001
G1 F1200 X108.426 Y142.367 E44.54111
G0 F6000 X108.07 Y142.625
G0 X109.577 Y144.698
G0 X109.933 Y144.44
G1 F1200 X114.401 Y148.908 E44.75127
G0 F6000 X114.4 Y149.473
G1 F1200 X111.441 Y146.513 E44.89047
G1 F1500 E38.39047
G0 F6000 X111.084 Y146.771
G0 X113.601 Y150.124
G0 X127.263 Y150.117
G0 X127.26 Y149.681
G0 X114.767 Y149.681
G0 X114.844 Y146.649
G0 X114.404 Y146.648
G1 F1500 E44.89047
G1 F1200 X103.903 Y136.147 E45.38441
G0 F6000 X103.547 Y136.405
G0 X102.04 Y134.332
G0 X102.396 Y134.074
G1 F1200 X114.405 Y146.084 E45.9493
G0 F6000 X114.406 Y145.519
G1 F1200 X101.435 Y132.548 E46.55942
G0 F6000 X102.001 Y132.548
G1 F1200 X114.407 Y144.954 E47.14296
G0 F6000 X114.407 Y144.389
G1 F1200 X102.567 Y132.548 E47.6999
G0 F6000 X103.132 Y132.548
G1 F1200 X114.408 Y143.824 E48.23028
G0 F6000 X114.409 Y143.259
